icons/Calendar_whiteicons.svg

<svg width="16" height="16" viewBox="0 0 16 16" fill="currentColor" xmlns="http://www.w3.org/2000/svg">
<g clip-path="url(#clip0_4_36)">
<path d="M5.89745 14.65H12.2874C12.6438 14.65 12.9968 14.5814 13.3261 14.4481C13.6554 14.3147 13.9546 14.1193 14.2065 13.873C14.4584 13.6267 14.6582 13.3343 14.7943 13.0125C14.9305 12.6907 15.0004 12.3459 15 11.9977V5.34627C15.0004 4.9981 14.9305 4.65327 14.7943 4.3315C14.6582 4.00973 14.4584 3.71732 14.2065 3.471C13.9546 3.22468 13.6554 3.02927 13.3261 2.89595C12.9968 2.76262 12.6438 2.694 12.2874 2.694H3.71259C3.35613 2.694 3.00316 2.76262 2.67386 2.89595C2.34457 3.02927 2.04542 3.22468 1.7935 3.471C1.54157 3.71732 1.3418 4.00973 1.20564 4.3315C1.06949 4.65327 0.999629 4.9981 1 5.34627V11.9977C0.999629 12.3459 1.06949 12.6907 1.20564 13.0125C1.3418 13.3343 1.54157 13.6267 1.7935 13.873C2.04542 14.1193 2.34457 14.3147 2.67386 14.4481C3.00316 14.5814 3.35613 14.65 3.71259 14.65V14.65" stroke="#1F1F1F" stroke-linecap="round" stroke-linejoin="round"/>
<path d="M1 5.89523H15M4.33624 1.35001V4.03553M11.7959 1.35001V4.03553" stroke="#1F1F1F" stroke-linecap="round" stroke-linejoin="round"/>
</g>
<defs>
<clipPath id="clip0_4_36">
<rect width="16" height="16" fill="white"/>
</clipPath>
</defs>
</svg>

<svg xmlns="http://www.w3.org/2000/svg" width="16" height="16" fill="currentColor" class="si si-Calendar_whiteicons" viewBox="0 0 16 16">
  <g stroke="#1F1F1F" stroke-linecap="round" stroke-linejoin="round" clip-path="url(#a)">
    <path d="M5.897 14.65h6.39c.357 0 .71-.069 1.04-.202a2.7 2.7 0 0 0 .88-.575A2.6 2.6 0 0 0 15 11.998V5.346a2.6 2.6 0 0 0-.206-1.014 2.7 2.7 0 0 0-.588-.861 2.7 2.7 0 0 0-.88-.575 2.8 2.8 0 0 0-1.039-.202H3.713a2.73 2.73 0 0 0-1.92.777 2.7 2.7 0 0 0-.587.86A2.6 2.6 0 0 0 1 5.347v6.652a2.6 2.6 0 0 0 .794 1.875c.252.246.55.442.88.575s.682.202 1.039.202v0M1 5.895h14M4.336 1.35v2.686m7.46-2.686v2.686"/>
  </g>
  <defs>
    <clipPath id="a">
      <path d="M0 0h16v16H0z"/>
    </clipPath>
  </defs>
</svg>
